X:271
T:Hielan's Laddie
M:4/4
L:1/8
R:Reel
K:AMaj
E2|:A2ABc3e|dcBAc4|c2B2B2AB|c2B2B2E2|A2ABc2ce|dcBAc3B|A2F2F2EF|1A2F2F2E2
:|2A2F2F2e2||:
f2gae2ga|dcBAc4|c2B2B2AB|c2B2B2e2|f2gae2ga|dcBAc3B|A2F2F2EF|1A2F2F2e2:|2
A2F2F2E2||
